X:2
T:Honourable Miss Charteris, The
M:C
L:1/8
R:Reel
S:Surenne - Dance Music of Scotland, p. 105   (1852)
Z:AK/Fiddler's Companion
K:Gmin
d | gaba g2 fd | cdfg agfa | gaba g2 fd | cdfA G<GGd |
gaba g2 fd | cdfg agfa | gaba g2 fd | cdfA G<GG ||
c | (B/4c/2<d) BG BdgB | (A/4B/2<c) AF AcfA | (B/4c/2<d) BG BdgB | {B}AG^FA G<GGc |
(B/4c/2<d) BG BdgB | (A/4B/2<c) AF AcfA | Bcd=e fgfd | cfcA G<GG ||

